X: 767
T: The Hare in the Corn. No. 2.
B:O'Neill's Music of Ireland
N:O'Neill's - 767
Z:Transcribed by Stephen Foy (shf@access.digex.net)
Z:abc 1.6
M:6/8
R:Jig
K:Dmix
A|BAB c2 A|BAB c2 A|BdB AFD|EFE E2 c|\
BAB c2 A|BAB c2 A|BdB AFA|DED D2:|
||G|F2 A AFA|BGB AFA|BdB AFD|EFE E2 G|\
F2 A AFA|BGB AFA|BdB AFA|DED D2:|
||g|fdd edd|fdd d2 A|BeB AFD|EFE E2 g|\
fdd edd|fdB AFA|DFA deg|fdd d2:|


